svg/regular/bx-arrow-to-top.svg

<svg xmlns="http://www.w3.org/2000/svg" width="24" height="24"><path d="M6 4h12v2H6zm.707 11.707L11 11.414V20h2v-8.586l4.293 4.293 1.414-1.414L12 7.586l-6.707 6.707z"/></svg>

<svg xmlns="http://www.w3.org/2000/svg" width="24" height="24" viewBox="0 0 24 24"><path d="M6 4H18V6H6zM6.707 15.707L11 11.414 11 20 13 20 13 11.414 17.293 15.707 18.707 14.293 12 7.586 5.293 14.293z"/></svg>
